X:1
T:Title
%%score ( 1 2 ) ( 3 4 )
L:1/8
Q:1/4=102
M:3/8
K:Ab
V:1 treble nm="Grand Piano, Soprano"
V:2 treble 
V:3 bass nm="Choir Pad, Christ Is Risen! (Kimball)"
V:4 bass 
V:1
 [Ec]2 [Ec] | BA[DF] | [CE]2 [CF] | [CE]2 [CA] | [Ec]2 [Ec] | cB[CA] | [DB]2 [Ec] | [DB]2 z | %8
w: By~L.~E.~M. *||||||||
 [Ec]2 [Ec] | BA[DF] | [CE]2 [CF] | [CE]2 [CA] | EA[Ec] | [Fe]2 [Fd] | [Ec]2 [DB] | [CA]3 | %16
w: ||||||||
 [EB]2 [Ec] | [Ed]2 [Ec] | [EB]2 [E=A] | [EB]2 [E=A] | [EB]2 [Ec] | [Ed]2 [Ec] | [EB]2 [E=A] | %23
w: |||||||
 [EB]2 _c | [Ec]2 [Ec] | BA[DF] | [CE]2 [CF] | [CE]2 [CA] | EA[Ec] | [Fe]2 [Fd] | [Ec]2 [DB] | %31
w: ||||||||
 [CA]3- | [CA]3- | [CA]2 z |] %34
w: |||
V:2
 x3 | F2 z | x3 | x3 | x3 | C2 z | x3 | x3 | x3 | F2 z | x3 | x3 | x3 | x3 | x3 | x3 | x3 | x3 | %18
 x3 | x3 | x3 | x3 | x3 | x3 | x3 | F2 z | x3 | x3 | x3 | x3 | x3 | x3 | x3 | x3 |] %34
V:3
 [A,,E,A,]2 [A,,E,A,] | [D,F,A,]2 [D,F,A,] | [A,,E,A,]2 [A,,E,A,] | [A,,E,A,]2 [A,,E,A,] | %4
 [A,,E,A,]2 [A,,E,A,] | [F,A,]2 [F,A,] | G,2 A, | [E,G,]2 z | [A,,E,A,]2 [A,,E,A,] | %9
 [D,F,A,]2 [D,F,A,] | [A,,E,A,]2 [A,,E,A,] | [A,,E,A,]2 [A,,E,A,] | [C,A,]2 [C,A,] | %13
 [D,B,]2 [D,B,] | [E,A,]2 [E,G,] | [A,,A,]3 | G,2 A, | B,2 A, | G,2 _G, | G,2 _G, | G,2 A, | %21
 B,2 A, | G,2 _G, | G,2 z | [A,,E,A,]2 [A,,E,A,] | [D,F,A,]2 [D,F,A,] | [A,,E,A,]2 [A,,E,A,] | %27
 [A,,E,A,]2 [A,,E,A,] | [C,A,]2 [C,A,] | [D,B,]2 [D,B,] | [E,A,]2 [E,G,] | [A,,A,]3- | [A,,A,]3- | %33
 [A,,A,]2 z |] %34
V:4
 x3 | x3 | x3 | x3 | x3 | x3 | E,3 | x3 | x3 | x3 | x3 | x3 | x3 | x3 | x3 | x3 | E,3- | E,3- | %18
 E,3- | E,3- | E,3- | E,3- | E,3- | E,2 z | x3 | x3 | x3 | x3 | x3 | x3 | x3 | x3 | x3 | x3 |] %34

